X:1     %Music
T:Isle of Dreams
B:Singing Together, Summer 1951, BBC Publications
F:http://www.folkinfo.org/songs
M:3/4     %Meter
L:1/8     %
K:D
D F A |d2 ed Bd |A2 FD FA |d2 ed Bd | A3 
w:Faint bells a-far in the west are ring-ing, Where dim blue hills kiss the eve-ning sky;
A Bd |F2 AF ED |E2 FA Bd |A2 DF E3/2D/ | D3 |]
w:Sweet mu-sic floats from the mer-maids' sing-ing And round me soft-ly the ech-oes die. 